images/3234969.svg

<?xml version="1.0" encoding="UTF-8"?>
<svg xmlns="http://www.w3.org/2000/svg" xmlns:xlink="http://www.w3.org/1999/xlink" width="300pt" height="300pt" viewBox="0 0 300 300" version="1.1">
<defs>
<g>
<symbol overflow="visible" id="glyph0-0">
<path style="stroke:none;" d="M 0.453125 1.59375 L 0.453125 -6.34375 L 4.953125 -6.34375 L 4.953125 1.59375 Z M 0.953125 1.09375 L 4.453125 1.09375 L 4.453125 -5.84375 L 0.953125 -5.84375 Z M 0.953125 1.09375 "/>
</symbol>
<symbol overflow="visible" id="glyph0-1">
<path style="stroke:none;" d="M 0.890625 -6.5625 L 2.078125 -6.5625 L 4.984375 -1.078125 L 4.984375 -6.5625 L 5.84375 -6.5625 L 5.84375 0 L 4.65625 0 L 1.75 -5.484375 L 1.75 0 L 0.890625 0 Z M 0.890625 -6.5625 "/>
</symbol>
<symbol overflow="visible" id="glyph0-2">
<path style="stroke:none;" d="M 3.546875 -5.953125 C 2.898438 -5.953125 2.382812 -5.710938 2 -5.234375 C 1.625 -4.753906 1.4375 -4.101562 1.4375 -3.28125 C 1.4375 -2.445312 1.625 -1.789062 2 -1.3125 C 2.382812 -0.832031 2.898438 -0.59375 3.546875 -0.59375 C 4.191406 -0.59375 4.703125 -0.832031 5.078125 -1.3125 C 5.453125 -1.789062 5.640625 -2.445312 5.640625 -3.28125 C 5.640625 -4.101562 5.453125 -4.753906 5.078125 -5.234375 C 4.703125 -5.710938 4.191406 -5.953125 3.546875 -5.953125 Z M 3.546875 -6.6875 C 4.460938 -6.6875 5.195312 -6.375 5.75 -5.75 C 6.300781 -5.132812 6.578125 -4.3125 6.578125 -3.28125 C 6.578125 -2.238281 6.300781 -1.410156 5.75 -0.796875 C 5.195312 -0.179688 4.460938 0.125 3.546875 0.125 C 2.617188 0.125 1.878906 -0.179688 1.328125 -0.796875 C 0.773438 -1.410156 0.5 -2.238281 0.5 -3.28125 C 0.5 -4.3125 0.773438 -5.132812 1.328125 -5.75 C 1.878906 -6.375 2.617188 -6.6875 3.546875 -6.6875 Z M 3.546875 -6.6875 "/>
</symbol>
</g>
</defs>
<g id="surface40417">
<rect x="0" y="0" width="300" height="300" style="fill:rgb(100%,100%,100%);fill-opacity:1;stroke:none;"/>
<path style="fill:none;stroke-width:1.2;stroke-linecap:butt;stroke-linejoin:miter;stroke:rgb(0%,0%,0%);stroke-opacity:1;stroke-miterlimit:10;" d="M 35.25 105.054688 L 43.988281 112.003906 "/>
<path style="fill:none;stroke-width:1.2;stroke-linecap:butt;stroke-linejoin:miter;stroke:rgb(0%,0%,100%);stroke-opacity:1;stroke-miterlimit:10;" d="M 43.988281 112.003906 L 52.726562 118.957031 "/>
<path style="fill:none;stroke-width:1.2;stroke-linecap:butt;stroke-linejoin:miter;stroke:rgb(0%,0%,100%);stroke-opacity:1;stroke-miterlimit:10;" d="M 52.726562 118.957031 L 63.113281 114.863281 "/>
<path style="fill:none;stroke-width:1.2;stroke-linecap:butt;stroke-linejoin:miter;stroke:rgb(0%,0%,0%);stroke-opacity:1;stroke-miterlimit:10;" d="M 63.113281 114.863281 L 73.5 110.769531 "/>
<path style="fill:none;stroke-width:1.2;stroke-linecap:butt;stroke-linejoin:miter;stroke:rgb(0%,0%,0%);stroke-opacity:1;stroke-miterlimit:10;" d="M 49.425781 141.039062 L 51.074219 129.996094 "/>
<path style="fill:none;stroke-width:1.2;stroke-linecap:butt;stroke-linejoin:miter;stroke:rgb(0%,0%,100%);stroke-opacity:1;stroke-miterlimit:10;" d="M 51.074219 129.996094 L 52.726562 118.957031 "/>
<path style=" stroke:none;fill-rule:nonzero;fill:rgb(100%,100%,100%);fill-opacity:1;" d="M 49.726562 113.457031 L 56.726562 113.457031 L 56.726562 124.457031 L 49.726562 124.457031 Z M 49.726562 113.457031 "/>
<g style="fill:rgb(0%,0%,100%);fill-opacity:1;">
  <use xlink:href="#glyph0-1" x="49.726562" y="122.120117"/>
</g>
<path style="fill:none;stroke-width:1.2;stroke-linecap:butt;stroke-linejoin:miter;stroke:rgb(0%,0%,0%);stroke-opacity:1;stroke-miterlimit:10;" d="M 73.5 110.769531 L 90.976562 124.671875 "/>
<path style="fill:none;stroke-width:1.2;stroke-linecap:butt;stroke-linejoin:miter;stroke:rgb(0%,0%,0%);stroke-opacity:1;stroke-miterlimit:10;" d="M 90.976562 124.671875 L 89.324219 135.710938 "/>
<path style="fill:none;stroke-width:1.2;stroke-linecap:butt;stroke-linejoin:miter;stroke:rgb(0%,0%,100%);stroke-opacity:1;stroke-miterlimit:10;" d="M 89.324219 135.710938 L 87.675781 146.753906 "/>
<path style="fill:none;stroke-width:1.2;stroke-linecap:butt;stroke-linejoin:miter;stroke:rgb(0%,0%,100%);stroke-opacity:1;stroke-miterlimit:10;" d="M 87.675781 146.753906 L 77.289062 150.847656 "/>
<path style="fill:none;stroke-width:1.2;stroke-linecap:butt;stroke-linejoin:miter;stroke:rgb(0%,0%,0%);stroke-opacity:1;stroke-miterlimit:10;" d="M 77.289062 150.847656 L 66.902344 154.9375 "/>
<path style="fill:none;stroke-width:1.2;stroke-linecap:butt;stroke-linejoin:miter;stroke:rgb(0%,0%,100%);stroke-opacity:1;stroke-miterlimit:10;" d="M 87.675781 146.753906 L 96.414062 153.703125 "/>
<path style="fill:none;stroke-width:1.2;stroke-linecap:butt;stroke-linejoin:miter;stroke:rgb(0%,0%,0%);stroke-opacity:1;stroke-miterlimit:10;" d="M 96.414062 153.703125 L 105.152344 160.652344 "/>
<path style=" stroke:none;fill-rule:nonzero;fill:rgb(100%,100%,100%);fill-opacity:1;" d="M 84.675781 141.253906 L 91.675781 141.253906 L 91.675781 152.253906 L 84.675781 152.253906 Z M 84.675781 141.253906 "/>
<g style="fill:rgb(0%,0%,100%);fill-opacity:1;">
  <use xlink:href="#glyph0-1" x="84.675781" y="149.916992"/>
</g>
<path style="fill:none;stroke-width:1.2;stroke-linecap:butt;stroke-linejoin:miter;stroke:rgb(0%,0%,0%);stroke-opacity:1;stroke-miterlimit:10;" d="M 66.902344 154.9375 L 49.425781 141.039062 "/>
<path style="fill:none;stroke-width:1.2;stroke-linecap:butt;stroke-linejoin:miter;stroke:rgb(0%,0%,0%);stroke-opacity:1;stroke-miterlimit:10;" d="M 105.152344 160.652344 L 103.5 171.695312 "/>
<path style="fill:none;stroke-width:1.2;stroke-linecap:butt;stroke-linejoin:miter;stroke:rgb(0%,0%,100%);stroke-opacity:1;stroke-miterlimit:10;" d="M 103.5 171.695312 L 101.851562 182.738281 "/>
<path style="fill:none;stroke-width:1.2;stroke-linecap:butt;stroke-linejoin:miter;stroke:rgb(0%,0%,0%);stroke-opacity:1;stroke-miterlimit:10;" d="M 110.015625 163.636719 L 108.695312 172.472656 "/>
<path style="fill:none;stroke-width:1.2;stroke-linecap:butt;stroke-linejoin:miter;stroke:rgb(0%,0%,100%);stroke-opacity:1;stroke-miterlimit:10;" d="M 108.695312 172.472656 L 107.378906 181.304688 "/>
<path style="fill:none;stroke-width:1.2;stroke-linecap:butt;stroke-linejoin:miter;stroke:rgb(0%,0%,100%);stroke-opacity:1;stroke-miterlimit:10;" d="M 125.925781 152.46875 L 115.539062 156.5625 "/>
<path style="fill:none;stroke-width:1.2;stroke-linecap:butt;stroke-linejoin:miter;stroke:rgb(0%,0%,0%);stroke-opacity:1;stroke-miterlimit:10;" d="M 115.539062 156.5625 L 105.152344 160.652344 "/>
<path style="fill:none;stroke-width:1.2;stroke-linecap:butt;stroke-linejoin:miter;stroke:rgb(0%,0%,100%);stroke-opacity:1;stroke-miterlimit:10;" d="M 101.851562 182.738281 L 110.589844 189.6875 "/>
<path style="fill:none;stroke-width:1.2;stroke-linecap:butt;stroke-linejoin:miter;stroke:rgb(0%,0%,0%);stroke-opacity:1;stroke-miterlimit:10;" d="M 110.589844 189.6875 L 119.328125 196.636719 "/>
<path style=" stroke:none;fill-rule:nonzero;fill:rgb(100%,100%,100%);fill-opacity:1;" d="M 98.851562 177.238281 L 105.851562 177.238281 L 105.851562 188.238281 L 98.851562 188.238281 Z M 98.851562 177.238281 "/>
<g style="fill:rgb(0%,0%,100%);fill-opacity:1;">
  <use xlink:href="#glyph0-1" x="98.851562" y="185.901367"/>
</g>
<path style="fill:none;stroke-width:1.2;stroke-linecap:butt;stroke-linejoin:miter;stroke:rgb(0%,0%,0%);stroke-opacity:1;stroke-miterlimit:10;" d="M 119.328125 196.636719 L 140.101562 188.453125 "/>
<path style="fill:none;stroke-width:1.2;stroke-linecap:butt;stroke-linejoin:miter;stroke:rgb(0%,0%,0%);stroke-opacity:1;stroke-miterlimit:10;" d="M 119.476562 190.929688 L 136.097656 184.382812 "/>
<path style="fill:none;stroke-width:1.2;stroke-linecap:butt;stroke-linejoin:miter;stroke:rgb(0%,0%,0%);stroke-opacity:1;stroke-miterlimit:10;" d="M 140.101562 188.453125 L 143.402344 166.367188 "/>
<path style="fill:none;stroke-width:1.2;stroke-linecap:butt;stroke-linejoin:miter;stroke:rgb(0%,0%,100%);stroke-opacity:1;stroke-miterlimit:10;" d="M 157.578125 202.351562 L 148.839844 195.402344 "/>
<path style="fill:none;stroke-width:1.2;stroke-linecap:butt;stroke-linejoin:miter;stroke:rgb(0%,0%,0%);stroke-opacity:1;stroke-miterlimit:10;" d="M 148.839844 195.402344 L 140.101562 188.453125 "/>
<path style="fill:none;stroke-width:1.2;stroke-linecap:butt;stroke-linejoin:miter;stroke:rgb(0%,0%,0%);stroke-opacity:1;stroke-miterlimit:10;" d="M 143.402344 166.367188 L 134.664062 159.417969 "/>
<path style="fill:none;stroke-width:1.2;stroke-linecap:butt;stroke-linejoin:miter;stroke:rgb(0%,0%,100%);stroke-opacity:1;stroke-miterlimit:10;" d="M 134.664062 159.417969 L 125.925781 152.46875 "/>
<path style="fill:none;stroke-width:1.2;stroke-linecap:butt;stroke-linejoin:miter;stroke:rgb(0%,0%,0%);stroke-opacity:1;stroke-miterlimit:10;" d="M 138.382812 169.089844 L 131.394531 163.53125 "/>
<path style="fill:none;stroke-width:1.2;stroke-linecap:butt;stroke-linejoin:miter;stroke:rgb(0%,0%,100%);stroke-opacity:1;stroke-miterlimit:10;" d="M 131.394531 163.53125 L 124.402344 157.972656 "/>
<path style="fill:none;stroke-width:1.2;stroke-linecap:butt;stroke-linejoin:miter;stroke:rgb(0%,0%,0%);stroke-opacity:1;stroke-miterlimit:10;" d="M 143.402344 166.367188 L 153.789062 162.277344 "/>
<path style="fill:none;stroke-width:1.2;stroke-linecap:butt;stroke-linejoin:miter;stroke:rgb(0%,0%,100%);stroke-opacity:1;stroke-miterlimit:10;" d="M 153.789062 162.277344 L 164.175781 158.183594 "/>
<path style=" stroke:none;fill-rule:nonzero;fill:rgb(100%,100%,100%);fill-opacity:1;" d="M 122.925781 146.96875 L 129.925781 146.96875 L 129.925781 157.96875 L 122.925781 157.96875 Z M 122.925781 146.96875 "/>
<g style="fill:rgb(0%,0%,100%);fill-opacity:1;">
  <use xlink:href="#glyph0-1" x="122.925781" y="155.631836"/>
</g>
<path style="fill:none;stroke-width:1.2;stroke-linecap:butt;stroke-linejoin:miter;stroke:rgb(0%,0%,100%);stroke-opacity:1;stroke-miterlimit:10;" d="M 164.175781 158.183594 L 172.914062 165.132812 "/>
<path style="fill:none;stroke-width:1.2;stroke-linecap:butt;stroke-linejoin:miter;stroke:rgb(0%,0%,0%);stroke-opacity:1;stroke-miterlimit:10;" d="M 172.914062 165.132812 L 181.652344 172.082031 "/>
<path style="fill:none;stroke-width:1.2;stroke-linecap:butt;stroke-linejoin:miter;stroke:rgb(0%,0%,100%);stroke-opacity:1;stroke-miterlimit:10;" d="M 164.175781 158.183594 L 165.824219 147.140625 "/>
<path style="fill:none;stroke-width:1.2;stroke-linecap:butt;stroke-linejoin:miter;stroke:rgb(0%,0%,0%);stroke-opacity:1;stroke-miterlimit:10;" d="M 165.824219 147.140625 L 167.476562 136.101562 "/>
<path style=" stroke:none;fill-rule:nonzero;fill:rgb(100%,100%,100%);fill-opacity:1;" d="M 161.175781 152.683594 L 168.175781 152.683594 L 168.175781 163.683594 L 161.175781 163.683594 Z M 161.175781 152.683594 "/>
<g style="fill:rgb(0%,0%,100%);fill-opacity:1;">
  <use xlink:href="#glyph0-1" x="161.175781" y="161.34668"/>
</g>
<path style="fill:none;stroke-width:1.2;stroke-linecap:butt;stroke-linejoin:miter;stroke:rgb(0%,0%,0%);stroke-opacity:1;stroke-miterlimit:10;" d="M 182.613281 174.527344 L 193 170.4375 "/>
<path style="fill:none;stroke-width:1.2;stroke-linecap:butt;stroke-linejoin:miter;stroke:rgb(100%,0%,0%);stroke-opacity:1;stroke-miterlimit:10;" d="M 193 170.4375 L 203.386719 166.34375 "/>
<path style="fill:none;stroke-width:1.2;stroke-linecap:butt;stroke-linejoin:miter;stroke:rgb(0%,0%,0%);stroke-opacity:1;stroke-miterlimit:10;" d="M 180.6875 169.640625 L 191.074219 165.546875 "/>
<path style="fill:none;stroke-width:1.2;stroke-linecap:butt;stroke-linejoin:miter;stroke:rgb(100%,0%,0%);stroke-opacity:1;stroke-miterlimit:10;" d="M 191.074219 165.546875 L 201.460938 161.457031 "/>
<path style="fill:none;stroke-width:1.2;stroke-linecap:butt;stroke-linejoin:miter;stroke:rgb(0%,0%,0%);stroke-opacity:1;stroke-miterlimit:10;" d="M 181.652344 172.082031 L 178.351562 194.167969 "/>
<path style=" stroke:none;fill-rule:nonzero;fill:rgb(100%,100%,100%);fill-opacity:1;" d="M 198.425781 158.398438 L 206.425781 158.398438 L 206.425781 169.398438 L 198.425781 169.398438 Z M 198.425781 158.398438 "/>
<g style="fill:rgb(100%,0%,0%);fill-opacity:1;">
  <use xlink:href="#glyph0-2" x="198.425781" y="167.061523"/>
</g>
<path style="fill:none;stroke-width:1.2;stroke-linecap:butt;stroke-linejoin:miter;stroke:rgb(0%,0%,0%);stroke-opacity:1;stroke-miterlimit:10;" d="M 178.351562 194.167969 L 167.964844 198.257812 "/>
<path style="fill:none;stroke-width:1.2;stroke-linecap:butt;stroke-linejoin:miter;stroke:rgb(0%,0%,100%);stroke-opacity:1;stroke-miterlimit:10;" d="M 167.964844 198.257812 L 157.578125 202.351562 "/>
<path style="fill:none;stroke-width:1.2;stroke-linecap:butt;stroke-linejoin:miter;stroke:rgb(0%,0%,0%);stroke-opacity:1;stroke-miterlimit:10;" d="M 174.347656 190.097656 L 166.039062 193.371094 "/>
<path style="fill:none;stroke-width:1.2;stroke-linecap:butt;stroke-linejoin:miter;stroke:rgb(0%,0%,100%);stroke-opacity:1;stroke-miterlimit:10;" d="M 166.039062 193.371094 L 157.726562 196.644531 "/>
<path style=" stroke:none;fill-rule:nonzero;fill:rgb(100%,100%,100%);fill-opacity:1;" d="M 154.578125 196.851562 L 161.578125 196.851562 L 161.578125 207.851562 L 154.578125 207.851562 Z M 154.578125 196.851562 "/>
<g style="fill:rgb(0%,0%,100%);fill-opacity:1;">
  <use xlink:href="#glyph0-1" x="154.578125" y="205.514648"/>
</g>
<path style="fill:none;stroke-width:1.2;stroke-linecap:butt;stroke-linejoin:miter;stroke:rgb(0%,0%,0%);stroke-opacity:1;stroke-miterlimit:10;" d="M 167.476562 136.101562 L 188.25 127.917969 "/>
<path style="fill:none;stroke-width:1.2;stroke-linecap:butt;stroke-linejoin:miter;stroke:rgb(0%,0%,0%);stroke-opacity:1;stroke-miterlimit:10;" d="M 188.25 127.917969 L 205.726562 141.816406 "/>
<path style="fill:none;stroke-width:1.2;stroke-linecap:butt;stroke-linejoin:miter;stroke:rgb(0%,0%,0%);stroke-opacity:1;stroke-miterlimit:10;" d="M 193.269531 125.195312 L 207.25 136.3125 "/>
<path style="fill:none;stroke-width:1.2;stroke-linecap:butt;stroke-linejoin:miter;stroke:rgb(0%,0%,0%);stroke-opacity:1;stroke-miterlimit:10;" d="M 191.550781 105.832031 L 188.25 127.917969 "/>
<path style="fill:none;stroke-width:1.2;stroke-linecap:butt;stroke-linejoin:miter;stroke:rgb(0%,0%,0%);stroke-opacity:1;stroke-miterlimit:10;" d="M 205.726562 141.816406 L 226.5 133.632812 "/>
<path style="fill:none;stroke-width:1.2;stroke-linecap:butt;stroke-linejoin:miter;stroke:rgb(0%,0%,0%);stroke-opacity:1;stroke-miterlimit:10;" d="M 226.5 133.632812 L 229.800781 111.546875 "/>
<path style="fill:none;stroke-width:1.2;stroke-linecap:butt;stroke-linejoin:miter;stroke:rgb(0%,0%,0%);stroke-opacity:1;stroke-miterlimit:10;" d="M 221.632812 130.648438 L 224.273438 112.980469 "/>
<path style="fill:none;stroke-width:1.2;stroke-linecap:butt;stroke-linejoin:miter;stroke:rgb(0%,0%,0%);stroke-opacity:1;stroke-miterlimit:10;" d="M 226.5 133.632812 L 235.238281 140.582031 "/>
<path style="fill:none;stroke-width:1.2;stroke-linecap:butt;stroke-linejoin:miter;stroke:rgb(100%,0%,0%);stroke-opacity:1;stroke-miterlimit:10;" d="M 235.238281 140.582031 L 243.976562 147.53125 "/>
<path style="fill:none;stroke-width:1.2;stroke-linecap:butt;stroke-linejoin:miter;stroke:rgb(0%,0%,0%);stroke-opacity:1;stroke-miterlimit:10;" d="M 229.800781 111.546875 L 212.324219 97.648438 "/>
<path style="fill:none;stroke-width:1.2;stroke-linecap:butt;stroke-linejoin:miter;stroke:rgb(0%,0%,0%);stroke-opacity:1;stroke-miterlimit:10;" d="M 212.324219 97.648438 L 191.550781 105.832031 "/>
<path style="fill:none;stroke-width:1.2;stroke-linecap:butt;stroke-linejoin:miter;stroke:rgb(0%,0%,0%);stroke-opacity:1;stroke-miterlimit:10;" d="M 212.171875 103.355469 L 195.554688 109.902344 "/>
<path style="fill:none;stroke-width:1.2;stroke-linecap:butt;stroke-linejoin:miter;stroke:rgb(100%,0%,0%);stroke-opacity:1;stroke-miterlimit:10;" d="M 243.976562 147.53125 L 254.363281 143.4375 "/>
<path style="fill:none;stroke-width:1.2;stroke-linecap:butt;stroke-linejoin:miter;stroke:rgb(0%,0%,0%);stroke-opacity:1;stroke-miterlimit:10;" d="M 254.363281 143.4375 L 264.75 139.347656 "/>
<path style=" stroke:none;fill-rule:nonzero;fill:rgb(100%,100%,100%);fill-opacity:1;" d="M 239.976562 142.03125 L 247.976562 142.03125 L 247.976562 153.03125 L 239.976562 153.03125 Z M 239.976562 142.03125 "/>
<g style="fill:rgb(100%,0%,0%);fill-opacity:1;">
  <use xlink:href="#glyph0-2" x="239.976562" y="150.694336"/>
</g>
</g>
</svg>

<svg xmlns="http://www.w3.org/2000/svg" xmlns:xlink="http://www.w3.org/1999/xlink" width="300pt" height="300pt" viewBox="0 0 300 300"><defs><symbol overflow="visible"><path d="M.453 1.594v-7.938h4.5v7.938zm.5-.5h3.5v-6.938h-3.5zm0 0"/></symbol><symbol overflow="visible" id="a"><path d="M.89-6.563H2.08l2.906 5.485v-5.484h.86V0H4.656L1.75-5.484V0H.89zm0 0"/></symbol><symbol overflow="visible" id="b"><path d="M3.547-5.953c-.65 0-1.164.242-1.547.72-.375.48-.563 1.13-.563 1.952 0 .835.188 1.49.563 1.967.383.48.898.72 1.547.72.644 0 1.156-.24 1.53-.72.376-.476.564-1.132.564-1.968 0-.822-.187-1.474-.562-1.954-.375-.477-.887-.72-1.53-.72zm0-.734c.914 0 1.648.312 2.203.937.55.617.828 1.438.828 2.47 0 1.042-.277 1.87-.828 2.483-.555.617-1.29.922-2.203.922-.93 0-1.668-.305-2.22-.922C.774-1.41.5-2.237.5-3.28c0-1.033.273-1.853.828-2.47.55-.625 1.29-.938 2.22-.938zm0 0"/></symbol></defs><g><path fill="#fff" d="M0 0h300v300H0z"/><path d="M35.25 105.055l8.738 6.95" stroke-width="1.2" stroke="#000" stroke-miterlimit="10" fill="none"/><path d="M43.988 112.004l8.74 6.953M52.727 118.957l10.386-4.094" stroke-width="1.2" stroke="#00f" stroke-miterlimit="10" fill="none"/><path d="M63.113 114.863L73.5 110.77M49.426 141.04l1.648-11.044" stroke-width="1.2" stroke="#000" stroke-miterlimit="10" fill="none"/><path d="M51.074 129.996l1.653-11.04" stroke-width="1.2" stroke="#00f" stroke-miterlimit="10" fill="none"/><path d="M49.727 113.457h7v11h-7zm0 0" fill="#fff"/><use xlink:href="#a" x="49.727" y="122.12" fill="#00f"/><path d="M73.5 110.77l17.477 13.902M90.977 124.672l-1.653 11.04" stroke-width="1.2" stroke="#000" stroke-miterlimit="10" fill="none"/><path d="M89.324 135.71l-1.648 11.044M87.676 146.754l-10.387 4.094" stroke-width="1.2" stroke="#00f" stroke-miterlimit="10" fill="none"/><path d="M77.29 150.848l-10.388 4.09" stroke-width="1.2" stroke="#000" stroke-miterlimit="10" fill="none"/><path d="M87.676 146.754l8.738 6.95" stroke-width="1.2" stroke="#00f" stroke-miterlimit="10" fill="none"/><path d="M96.414 153.703l8.738 6.95" stroke-width="1.2" stroke="#000" stroke-miterlimit="10" fill="none"/><path d="M84.676 141.254h7v11h-7zm0 0" fill="#fff"/><use xlink:href="#a" x="84.676" y="149.917" fill="#00f"/><path d="M66.902 154.938l-17.476-13.9M105.152 160.652l-1.652 11.043" stroke-width="1.2" stroke="#000" stroke-miterlimit="10" fill="none"/><path d="M103.5 171.695l-1.648 11.043" stroke-width="1.2" stroke="#00f" stroke-miterlimit="10" fill="none"/><path d="M110.016 163.637l-1.32 8.836" stroke-width="1.2" stroke="#000" stroke-miterlimit="10" fill="none"/><path d="M108.695 172.473l-1.316 8.832M125.926 152.47l-10.387 4.093" stroke-width="1.2" stroke="#00f" stroke-miterlimit="10" fill="none"/><path d="M115.54 156.563l-10.388 4.09" stroke-width="1.2" stroke="#000" stroke-miterlimit="10" fill="none"/><path d="M101.852 182.738l8.738 6.95" stroke-width="1.2" stroke="#00f" stroke-miterlimit="10" fill="none"/><path d="M110.59 189.688l8.738 6.95" stroke-width="1.2" stroke="#000" stroke-miterlimit="10" fill="none"/><path d="M98.852 177.238h7v11h-7zm0 0" fill="#fff"/><use xlink:href="#a" x="98.852" y="185.901" fill="#00f"/><path d="M119.328 196.637l20.774-8.184M119.477 190.93l16.62-6.547M140.102 188.453l3.3-22.086" stroke-width="1.2" stroke="#000" stroke-miterlimit="10" fill="none"/><path d="M157.578 202.352l-8.738-6.95" stroke-width="1.2" stroke="#00f" stroke-miterlimit="10" fill="none"/><path d="M148.84 195.402l-8.738-6.95M143.402 166.367l-8.738-6.95" stroke-width="1.2" stroke="#000" stroke-miterlimit="10" fill="none"/><path d="M134.664 159.418l-8.738-6.95" stroke-width="1.2" stroke="#00f" stroke-miterlimit="10" fill="none"/><path d="M138.383 169.09l-6.988-5.56" stroke-width="1.2" stroke="#000" stroke-miterlimit="10" fill="none"/><path d="M131.395 163.53l-6.993-5.557" stroke-width="1.2" stroke="#00f" stroke-miterlimit="10" fill="none"/><path d="M143.402 166.367l10.387-4.09" stroke-width="1.2" stroke="#000" stroke-miterlimit="10" fill="none"/><path d="M153.79 162.277l10.386-4.093" stroke-width="1.2" stroke="#00f" stroke-miterlimit="10" fill="none"/><path d="M122.926 146.97h7v11h-7zm0 0" fill="#fff"/><use xlink:href="#a" x="122.926" y="155.632" fill="#00f"/><path d="M164.176 158.184l8.738 6.95" stroke-width="1.2" stroke="#00f" stroke-miterlimit="10" fill="none"/><path d="M172.914 165.133l8.738 6.95" stroke-width="1.2" stroke="#000" stroke-miterlimit="10" fill="none"/><path d="M164.176 158.184l1.648-11.043" stroke-width="1.2" stroke="#00f" stroke-miterlimit="10" fill="none"/><path d="M165.824 147.14l1.653-11.038" stroke-width="1.2" stroke="#000" stroke-miterlimit="10" fill="none"/><path d="M161.176 152.684h7v11h-7zm0 0" fill="#fff"/><use xlink:href="#a" x="161.176" y="161.347" fill="#00f"/><path d="M182.613 174.527l10.387-4.09" stroke-width="1.2" stroke="#000" stroke-miterlimit="10" fill="none"/><path d="M193 170.438l10.387-4.094" stroke-width="1.2" stroke="#f00" stroke-miterlimit="10" fill="none"/><path d="M180.688 169.64l10.386-4.093" stroke-width="1.2" stroke="#000" stroke-miterlimit="10" fill="none"/><path d="M191.074 165.547l10.387-4.09" stroke-width="1.2" stroke="#f00" stroke-miterlimit="10" fill="none"/><path d="M181.652 172.082l-3.3 22.086" stroke-width="1.2" stroke="#000" stroke-miterlimit="10" fill="none"/><path d="M198.426 158.398h8v11h-8zm0 0" fill="#fff"/><use xlink:href="#b" x="198.426" y="167.062" fill="#f00"/><path d="M178.352 194.168l-10.387 4.09" stroke-width="1.2" stroke="#000" stroke-miterlimit="10" fill="none"/><path d="M167.965 198.258l-10.387 4.094" stroke-width="1.2" stroke="#00f" stroke-miterlimit="10" fill="none"/><path d="M174.348 190.098l-8.31 3.273" stroke-width="1.2" stroke="#000" stroke-miterlimit="10" fill="none"/><path d="M166.04 193.37l-8.313 3.275" stroke-width="1.2" stroke="#00f" stroke-miterlimit="10" fill="none"/><path d="M154.578 196.852h7v11h-7zm0 0" fill="#fff"/><use xlink:href="#a" x="154.578" y="205.515" fill="#00f"/><path d="M167.477 136.102l20.773-8.184M188.25 127.918l17.477 13.898M193.27 125.195l13.98 11.118M191.55 105.832l-3.3 22.086M205.727 141.816l20.773-8.183M226.5 133.633l3.3-22.086M221.633 130.648l2.64-17.668M226.5 133.633l8.738 6.95" stroke-width="1.2" stroke="#000" stroke-miterlimit="10" fill="none"/><path d="M235.238 140.582l8.74 6.95" stroke-width="1.2" stroke="#f00" stroke-miterlimit="10" fill="none"/><path d="M229.8 111.547l-17.476-13.9M212.324 97.648l-20.773 8.184M212.172 103.355l-16.617 6.547" stroke-width="1.2" stroke="#000" stroke-miterlimit="10" fill="none"/><path d="M243.977 147.53l10.386-4.093" stroke-width="1.2" stroke="#f00" stroke-miterlimit="10" fill="none"/><path d="M254.363 143.438l10.387-4.09" stroke-width="1.2" stroke="#000" stroke-miterlimit="10" fill="none"/><path d="M239.977 142.03h8v11h-8zm0 0" fill="#fff"/><use xlink:href="#b" x="239.977" y="150.694" fill="#f00"/></g></svg>
